apps/symbolic/cheese-symbolic.svg

<svg height="24" viewBox="0 0 24 24" width="24" xmlns="http://www.w3.org/2000/svg"><path d="m13.557 14.7-3.51 6.084c.63.135 1.278.216 1.953.216 2.16 0 4.14-.765 5.688-2.025l-3.294-5.715m-10.98 1.44c.828 2.628 2.835 4.734 5.391 5.706l3.303-5.706m-3.222-2.7-3.51-6.075c-1.476 1.575-2.376 3.726-2.376 6.075 0 .612.063 1.215.18 1.8h6.741m10.899-3.6h-6.741l.261.45 4.284 7.425c1.476-1.602 2.376-3.735 2.376-6.075 0-.621-.063-1.224-.18-1.8m-.234-.9c-.828-2.637-2.835-4.734-5.391-5.706l-3.303 5.706m-2.232 1.35 4.293-7.434c-.63-.135-1.278-.216-1.953-.216-2.16 0-4.14.756-5.688 2.025l3.294 5.715z" fill="#bebebe" stroke-width=".9"/></svg>

<?xml version="1.0" encoding="UTF-8" standalone="no"?>
<svg
   xmlns:dc="http://purl.org/dc/elements/1.1/"
   xmlns:cc="http://creativecommons.org/ns#"
   xmlns:rdf="http://www.w3.org/1999/02/22-rdf-syntax-ns#"
   xmlns:svg="http://www.w3.org/2000/svg"
   xmlns="http://www.w3.org/2000/svg"
   xmlns:sodipodi="http://sodipodi.sourceforge.net/DTD/sodipodi-0.dtd"
   xmlns:inkscape="http://www.inkscape.org/namespaces/inkscape"
   version="1.1"
   width="24"
   height="24"
   viewBox="0 0 24 24"
   id="svg2"
   inkscape:version="0.92.1 r15371"
   sodipodi:docname="cheese-symbolic.svg">
  <metadata
     id="metadata10">
    <rdf:RDF>
      <cc:Work
         rdf:about="">
        <dc:format>image/svg+xml</dc:format>
        <dc:type
           rdf:resource="http://purl.org/dc/dcmitype/StillImage" />
      </cc:Work>
    </rdf:RDF>
  </metadata>
  <defs
     id="defs8" />
  <sodipodi:namedview
     pagecolor="#ffffff"
     bordercolor="#666666"
     borderopacity="1"
     objecttolerance="10"
     gridtolerance="10"
     guidetolerance="10"
     inkscape:pageopacity="0"
     inkscape:pageshadow="2"
     inkscape:window-width="640"
     inkscape:window-height="480"
     id="namedview6"
     showgrid="false"
     inkscape:zoom="25.291667"
     inkscape:cx="4.9621087"
     inkscape:cy="12"
     inkscape:current-layer="svg2" />
  <path
     d="m 13.557,14.7 -3.51,6.084 C 10.677,20.919 11.325,21 12,21 c 2.16,0 4.14,-0.765 5.688,-2.025 L 14.394,13.26 M 3.414,14.7 c 0.828,2.628 2.835,4.734 5.391,5.706 L 12.108,14.7 M 8.886,12 5.376,5.925 C 3.9,7.5 3,9.651 3,12 c 0,0.612 0.063,1.215 0.18,1.8 H 9.921 M 20.82,10.2 h -6.741 l 0.261,0.45 4.284,7.425 C 20.1,16.473 21,14.34 21,12 21,11.379 20.937,10.776 20.82,10.2 M 20.586,9.3 C 19.758,6.663 17.751,4.566 15.195,3.594 L 11.892,9.3 M 9.66,10.65 13.953,3.216 C 13.323,3.081 12.675,3 12,3 9.84,3 7.86,3.756 6.312,5.025 l 3.294,5.715 z"
     id="path4"
     style="fill:#bebebe;fill-opacity:1;stroke-width:0.89999998"
     inkscape:connector-curvature="0" />
</svg>
